X:1
T:[ID 6-51]
T:[ID 6-51]
T:Bezeichnung standardisiert: Tantz Tantz 22.
T:Urheber unbekannt Datum in der hier transkribierten schriftlichen Quelle: 1775
C:Urheber unbekannt
C:Datum in der hier transkribierten schriftlichen Quelle: 1775
L:1/8
M:2/4
K:G
V:1 treble 
V:1
 G2 DG | D/E/F/D/ DF | GF/G/ A/G/F/E/ | D/E/F/D/ DG/A/ | BDAD | GF/E/ FG/A/ | B/D/B/D/ A/D/A/D/ | %7
 GF/E/ FB/A/ | GC/B,/ CB,/A,/ | B,2 B,2 :: F2 DF | A/B/c/A/ Fc | dc/d/ e/d/c/B/ | A/B/c/A/ Ad/e/ | %14
 fAeA | dc/B/ cd/e/ | f/A/f/A/ e/A/e/A/ | dc/B/ cf/e/ | dG/F/ GF/E/ | F2 F2 | BA/B/ GB | AG/A/ FA | %22
 GF/G/ A/G/F/E/ | D/E/F/D/ DG/A/ | BDAD | GF/E/ FG/A/ | B/D/B/D/ A/D/A/D/ | GF/E/ FB/A/ | %28
 GC/B,/ CB,/A,/ | B,2 B,2 :| %30

